X:12808
T:Parson of Eltham,The. JB.33
M:6/8
L:1/8
Q:90
S:James Biggins MS, Leeds, 1779.
R:Misc.
O:England
A:Yorkshire
Z:vmp.Nick Barber & Chris Partington
K:F
BGB AFA|BGBA2c|def efg|fga gec|!BGB AFA|BGBA2c|def cfe|f3F3:|!
|:faf afd|ege gec|faf ege|def edc|!f/g/af afd|e/f/ge gec|agf edc|""=B3c
3:|]
